Sources/FrostedUI/Resources/Icons.xcassets/calendarPlus12.imageset/calendar-plus-12.svg

<svg width="12" height="12" viewBox="0 0 12 12" fill="none" xmlns="http://www.w3.org/2000/svg" data-fui-icon="true">
  <path
    d="M8.875 6.625C9.28921 6.625 9.625 6.96079 9.625 7.375V8.25H10.5C10.9142 8.25 11.25 8.58579 11.25 9C11.25 9.41421 10.9142 9.75 10.5 9.75H9.625V10.625C9.625 11.0392 9.28921 11.375 8.875 11.375C8.46079 11.375 8.125 11.0392 8.125 10.625V9.75H7.25C6.83579 9.75 6.5 9.41421 6.5 9C6.5 8.58579 6.83579 8.25 7.25 8.25H8.125V7.375C8.125 6.96079 8.46079 6.625 8.875 6.625ZM8.125 0.625C8.53921 0.625 8.875 0.960786 8.875 1.375V1.625H9.125C10.0915 1.625 10.875 2.40851 10.875 3.375V5.625C10.875 6.03921 10.5392 6.375 10.125 6.375C9.71079 6.375 9.375 6.03921 9.375 5.625V5.375H2.625V9.125C2.625 9.26308 2.73692 9.375 2.875 9.375H5.625C6.03921 9.375 6.375 9.71079 6.375 10.125C6.375 10.5392 6.03921 10.875 5.625 10.875H2.875C1.90851 10.875 1.125 10.0915 1.125 9.125V3.375C1.125 2.4085 1.9085 1.625 2.875 1.625H3.125V1.375C3.125 0.960786 3.46079 0.625 3.875 0.625C4.28921 0.625 4.625 0.960786 4.625 1.375V1.625H7.375V1.375C7.375 0.960786 7.71079 0.625 8.125 0.625ZM2.875 3.125C2.73693 3.125 2.625 3.23693 2.625 3.375V3.875H9.375V3.375C9.375 3.23692 9.26308 3.125 9.125 3.125H2.875Z"
    fill="currentColor"
  />
</svg>

<svg xmlns="http://www.w3.org/2000/svg" width="12" height="12" fill="none" data-fui-icon="true" viewBox="0 0 12 12"><path fill="currentColor" d="M8.875 6.625a.75.75 0 0 1 .75.75v.875h.875a.75.75 0 0 1 0 1.5h-.875v.875a.75.75 0 0 1-1.5 0V9.75H7.25a.75.75 0 0 1 0-1.5h.875v-.875a.75.75 0 0 1 .75-.75m-.75-6a.75.75 0 0 1 .75.75v.25h.25c.966 0 1.75.784 1.75 1.75v2.25a.75.75 0 0 1-1.5 0v-.25h-6.75v3.75c0 .138.112.25.25.25h2.75a.75.75 0 0 1 0 1.5h-2.75a1.75 1.75 0 0 1-1.75-1.75v-5.75c0-.966.784-1.75 1.75-1.75h.25v-.25a.75.75 0 0 1 1.5 0v.25h2.75v-.25a.75.75 0 0 1 .75-.75m-5.25 2.5a.25.25 0 0 0-.25.25v.5h6.75v-.5a.25.25 0 0 0-.25-.25z"/></svg>
